X:56
T:Buck from the Mountain
T:McElligott's Fancy
R:hornpipe
D:Frankie Gavin: Up and Away
Z:id:hn-hornpipe-56
M:C|
K:D
FG|AFAd BGBd|AFAd f2fe|dfgf edBc|dBAG FEDF|
AFAd BGBd|AFAd f2fe|dfgf edBc|dAfe d2:|
|:ef|gfge cABc|dcde fdef|gfge cABc|dBAG FEDF|
AFAd BGBd|AFAd f2fe|dfgf edBc|dAfe d2:|
<end>
<start>
